X:1
T:Democrat:ic -- Hornpipe
Z:Bob Puckette <bpuckette:msn.com> 2003-3-10
R:hornpipe
B:Cole's 1000 Fiddle Tunes
M:2/4
L:1/16
K:Gm
vGA|BABc dcdf|gfga faba|fdbf fdcd|BAGF GFDF|
.G2(GA) BABG|.F2(FG) AGFD|GABc dcBA|B2G2G2:|
|:ug2|gfdf gabg|gfdf gfdf|BABc dcde|fcdB AGFD|
BFdB AFec|BFdB AFec|dfga bagf|d2g2g2:|
